assets/hospital.svg

<svg xmlns="http://www.w3.org/2000/svg" viewBox="0 0 64 64" width="512" height="512"><path d="M37 11h-2V9a1 1 0 00-1-1h-4a1 1 0 00-1 1v2h-2a1 1 0 00-1 1v4a1 1 0 001 1h2v2a1 1 0 001 1h4a1 1 0 001-1v-2h2a1 1 0 001-1v-4a1 1 0 00-1-1zm-1 4h-2a1 1 0 00-1 1v2h-2v-2a1 1 0 00-1-1h-2v-2h2a1 1 0 001-1v-2h2v2a1 1 0 001 1h2zM19 32h25a1 1 0 001-1v-4a1 1 0 00-1-1H19a1 1 0 00-1 1v4a1 1 0 001 1zm1-4h23v2H20z"/><path d="M3 60h58a1 1 0 001-1V17a1 1 0 00-1-1H50V5a1 1 0 00-1-1H15a1 1 0 00-1 1v11H3a1 1 0 00-1 1v42a1 1 0 001 1zm47-42h10v2H50zm0 4h10v32h-2v-5a1 1 0 00-1-1h-4a1 1 0 00-1 1v5h-2zm6 28v4h-2v-4zm-6 6h10v2H50zm-27-1v3h-3V42h3zm0-15h-3v-4h3zm16 18H25v-2h14zm-8-16v5h-2v2h2v5h-6V42zm-6-2v-4h2v4zm4 0v-4h2v4zm10 14h-6v-5h2v-2h-2v-5h6zm-6-14v-4h2v4zm6 0h-2v-4h2zm4 18h-2V42h2zm0-18h-2v-4h2zM20 6h24v16H20zm-4 0h2v17a1 1 0 001 1h26a1 1 0 001-1V6h2v52h-3V35a1 1 0 00-1-1H19a1 1 0 00-1 1v23h-2zM4 18h10v2H4zm0 4h10v32h-2v-5a1 1 0 00-1-1H7a1 1 0 00-1 1v5H4zm6 28v4H8v-4zm-6 6h10v2H4z"/><path d="M53 30h4a1 1 0 001-1v-4a1 1 0 00-1-1h-4a1 1 0 00-1 1v4a1 1 0 001 1zm1-4h2v2h-2zM53 38h4a1 1 0 001-1v-4a1 1 0 00-1-1h-4a1 1 0 00-1 1v4a1 1 0 001 1zm1-4h2v2h-2zM53 46h4a1 1 0 001-1v-4a1 1 0 00-1-1h-4a1 1 0 00-1 1v4a1 1 0 001 1zm1-4h2v2h-2zM7 30h4a1 1 0 001-1v-4a1 1 0 00-1-1H7a1 1 0 00-1 1v4a1 1 0 001 1zm1-4h2v2H8zM7 38h4a1 1 0 001-1v-4a1 1 0 00-1-1H7a1 1 0 00-1 1v4a1 1 0 001 1zm1-4h2v2H8zM7 46h4a1 1 0 001-1v-4a1 1 0 00-1-1H7a1 1 0 00-1 1v4a1 1 0 001 1zm1-4h2v2H8z"/></svg>

<?xml version="1.0"?>
<svg xmlns="http://www.w3.org/2000/svg" viewBox="0 0 64 64" width="512" height="512"><g id="outline"><path d="M37,11H35V9a1,1,0,0,0-1-1H30a1,1,0,0,0-1,1v2H27a1,1,0,0,0-1,1v4a1,1,0,0,0,1,1h2v2a1,1,0,0,0,1,1h4a1,1,0,0,0,1-1V17h2a1,1,0,0,0,1-1V12A1,1,0,0,0,37,11Zm-1,4H34a1,1,0,0,0-1,1v2H31V16a1,1,0,0,0-1-1H28V13h2a1,1,0,0,0,1-1V10h2v2a1,1,0,0,0,1,1h2Z"/><path d="M19,32H44a1,1,0,0,0,1-1V27a1,1,0,0,0-1-1H19a1,1,0,0,0-1,1v4A1,1,0,0,0,19,32Zm1-4H43v2H20Z"/><path d="M3,60H61a1,1,0,0,0,1-1V17a1,1,0,0,0-1-1H50V5a1,1,0,0,0-1-1H15a1,1,0,0,0-1,1V16H3a1,1,0,0,0-1,1V59A1,1,0,0,0,3,60ZM50,18H60v2H50Zm0,4H60V54H58V49a1,1,0,0,0-1-1H53a1,1,0,0,0-1,1v5H50Zm6,28v4H54V50Zm-6,6H60v2H50ZM23,55v3H20V42h3Zm0-15H20V36h3ZM39,58H25V56H39ZM31,42v5H29v2h2v5H25V42Zm-6-2V36h2v4Zm4,0V36h2v4ZM39,54H33V49h2V47H33V42h6ZM33,40V36h2v4Zm6,0H37V36h2Zm4,18H41V42h2Zm0-18H41V36h2ZM20,6H44V22H20ZM16,6h2V23a1,1,0,0,0,1,1H45a1,1,0,0,0,1-1V6h2V58H45V35a1,1,0,0,0-1-1H19a1,1,0,0,0-1,1V58H16ZM4,18H14v2H4Zm0,4H14V54H12V49a1,1,0,0,0-1-1H7a1,1,0,0,0-1,1v5H4Zm6,28v4H8V50ZM4,56H14v2H4Z"/><path d="M53,30h4a1,1,0,0,0,1-1V25a1,1,0,0,0-1-1H53a1,1,0,0,0-1,1v4A1,1,0,0,0,53,30Zm1-4h2v2H54Z"/><path d="M53,38h4a1,1,0,0,0,1-1V33a1,1,0,0,0-1-1H53a1,1,0,0,0-1,1v4A1,1,0,0,0,53,38Zm1-4h2v2H54Z"/><path d="M53,46h4a1,1,0,0,0,1-1V41a1,1,0,0,0-1-1H53a1,1,0,0,0-1,1v4A1,1,0,0,0,53,46Zm1-4h2v2H54Z"/><path d="M7,30h4a1,1,0,0,0,1-1V25a1,1,0,0,0-1-1H7a1,1,0,0,0-1,1v4A1,1,0,0,0,7,30Zm1-4h2v2H8Z"/><path d="M7,38h4a1,1,0,0,0,1-1V33a1,1,0,0,0-1-1H7a1,1,0,0,0-1,1v4A1,1,0,0,0,7,38Zm1-4h2v2H8Z"/><path d="M7,46h4a1,1,0,0,0,1-1V41a1,1,0,0,0-1-1H7a1,1,0,0,0-1,1v4A1,1,0,0,0,7,46Zm1-4h2v2H8Z"/></g></svg>
